X:1
T:Title
%%score ( 1 2 3 ) { ( 4 5 ) | ( 6 7 ) }
L:1/8
Q:1/4=103
M:4/4
K:Db
V:1 treble nm="Grand Piano, Soprano"
V:2 treble 
V:3 treble 
V:4 treble nm="Choir Pad, Wendell, Irving Emerson"
V:5 treble 
V:6 bass 
V:7 bass 
V:1
 [FA]2 [GA]2 F2 z d | dcBc [Fd]2 [FA]2 | [EG]2 [EA]2 F2 [FA]2 | .F2 z2 z4 | [FA]2 [GA]2 A3 d | %5
w: By~Arranged~by~Irving~Emerson,~1906 * * *|||||
 dcBc [Fd]2 [FA]2 | [F=A]2 [FA]2 [FB]2 [Ee]2 | [Fd]2 [Ec]2 [DB]4 | [FB]3 [FB] [EB]2 [EB]2 | %9
w: ||||
 [EB]3 [EA] [FA]2 [FA]2 | [DG]3 [CA] [DF]2 [DA]2 | B2 z2 z4 | [FA]2 [GA]2 [FA]3 [Fd] | %13
w: ||||
 dcBc [Fd]2 [FA]2 | z2 .A2 z4 | [Ed]2 [Gc]2 [Fd]4- | [Fd]4 z4 |] %17
w: ||||
V:2
 z4 A4 | G2 G2 z4 | x8 | B-[EB] [DE]2 [CE]4 | z4 F2 F2 | G2 G2 z4 | x8 | x8 | x8 | x8 | x8 | %11
 DE [_FB]2 [=F=A]4 | x8 | G2 G2 z4 | [EG]2 E-[EG] [DF][CA][DA][Fd] | x8 | x8 |] %17
V:3
 z4 z2 F2 | x8 | x8 | x8 | x8 | x8 | x8 | x8 | x8 | x8 | x8 | x8 | x8 | x8 | x8 | x8 | x8 |] %17
V:4
 A,DDC D2[K:bass] z D, | A,2 A,2 A,2 A,2 | B,2 A,2 A,2[K:treble] D2 | D2 B,2 C4 | D2 DC .D4 | %5
 A,2 A,2 A,2 D2 | C2 C2 B,2 B,2 | B,2 =A,2 B,4 | =D3 D E2 B,2 | C3 C D2 D2 | B,3 C A,2 D2 | %11
 D2 DB, C4 | D2 DC .D4 | A,2 A,2 A,2 A,2 | B,2 A,2 A,2 A,2 | B,2 A,2 A,4- | A,4 z4 |] %17
V:5
 z4 z2[K:bass] A,2 | x8 | x6[K:treble] x2 | x8 | x8 | x8 | x8 | x8 | x8 | x8 | x8 | x8 | x8 | x8 | %14
 x8 | x8 | x8 |] %17
V:6
 D,2 D,2 .D,4 | E,2 A,,2 D,2 D,2 | D,2 C,2 D,2 F,2 | G,2 =G,2 A,4 | D,2 E,2 F,2 z A, | %5
 E,2 A,,2 D,2 D,2 | F,2 E,2 D,2 G,2 | F,2 F,2 B,,4 | A,3 A, G,2 G,2 | G,3 G, F,2 F,2 | %10
 E,3 A,, D,2 F,2 | G,2 G,2 F,4 | D,2 E,2 F,2 z A, | E,2 A,,2 D,2 D,2 | D,2 C,2 D,E, F,2 | %15
 G,2 z2 D,4- | D,4 z4 |] %17
V:7
 x8 | x8 | x8 | x8 | z4 z2 D,2 | x8 | x8 | x8 | x8 | x8 | x8 | x8 | z4 z2 D,2 | x8 | x8 | x8 | %16
 x8 |] %17

